X: 2
T: The Flax In Bloom
R: reel
M: 4/4
L: 1/8
K: Dmaj
faaf dfaf| gabg ecAb| affd ABAF| A2ge fdd2|faaf dfaf| gabg ecAB| AGFG A2df| afeg fdd2|


Tune 748	Setting 13844

